static/images/social/github.svg

<svg width="32" height="32" viewBox="0 0 32 32" fill="none" xmlns="http://www.w3.org/2000/svg">
<g clip-path="url(#clip0_84_4494)">
<path d="M16 0C11.7565 0 7.68687 1.68571 4.68629 4.68629C1.68571 7.68687 0 11.7565 0 16C0 20.2435 1.68571 24.3131 4.68629 27.3137C7.68687 30.3143 11.7565 32 16 32C20.2435 32 24.3131 30.3143 27.3137 27.3137C30.3143 24.3131 32 20.2435 32 16C32 11.7565 30.3143 7.68687 27.3137 4.68629C24.3131 1.68571 20.2435 0 16 0ZM20.2173 29.044H20.0933C20.0002 29.0493 19.907 29.0354 19.8194 29.0033C19.7318 28.9712 19.6517 28.9215 19.584 28.8573C19.5215 28.7912 19.4727 28.7133 19.4407 28.6281C19.4086 28.543 19.3939 28.4523 19.3973 28.3613V26.4867C19.4053 25.864 19.4107 25.2333 19.4107 24.5987C19.4085 24.1346 19.3407 23.6731 19.2093 23.228C19.0849 22.778 18.8341 22.3732 18.4867 22.0613C19.416 21.9716 20.3295 21.7605 21.204 21.4333C21.9416 21.1528 22.6088 20.7141 23.1587 20.148C23.7013 19.5787 24.1053 18.8907 24.3387 18.14C24.6225 17.2207 24.7575 16.2619 24.7387 15.3C24.7439 14.6284 24.6264 13.9614 24.392 13.332C24.1538 12.6976 23.7937 12.116 23.332 11.62C23.4317 11.3698 23.5041 11.1097 23.548 10.844C23.592 10.5773 23.6147 10.308 23.6147 10.0387C23.6147 9.692 23.5747 9.34533 23.4947 9.008C23.422 8.66201 23.3235 8.32194 23.2 7.99067C23.1529 7.97228 23.1026 7.96322 23.052 7.964H22.9053C22.5987 7.96667 22.2973 8.01733 22.0067 8.112C21.6865 8.20546 21.3733 8.3213 21.0693 8.45867C20.7671 8.59415 20.4728 8.74685 20.188 8.916C19.9013 9.08533 19.648 9.248 19.424 9.39867C17.181 8.77351 14.8097 8.77351 12.5667 9.39867C12.3165 9.23143 12.0622 9.07049 11.804 8.916C11.5152 8.74543 11.2159 8.59313 10.908 8.46C10.6049 8.31808 10.2905 8.20167 9.968 8.112C9.68307 8.01787 9.38539 7.96796 9.08533 7.964H8.93867C8.88851 7.96329 8.8387 7.97235 8.792 7.99067C8.66675 8.3224 8.56429 8.66231 8.48533 9.008C8.41333 9.34667 8.37867 9.692 8.37733 10.0387C8.37733 10.308 8.4 10.5773 8.44533 10.844C8.48933 11.1093 8.56 11.3693 8.65867 11.62C8.19812 12.1166 7.83936 12.6987 7.60267 13.3333C7.36704 13.9625 7.2482 14.6295 7.252 15.3013C7.23335 16.2581 7.36472 17.2119 7.64133 18.128C7.88267 18.8787 8.28533 19.568 8.82 20.1493C9.37333 20.712 10.04 21.1493 10.7747 21.4347C11.6453 21.768 12.5573 21.9813 13.4853 22.0693C13.2262 22.3042 13.0207 22.592 12.8827 22.9133C12.7514 23.2311 12.6617 23.5646 12.616 23.9053C12.1268 24.1396 11.5917 24.2625 11.0493 24.2653C10.5456 24.2855 10.0485 24.1455 9.62933 23.8653C9.22725 23.5674 8.88675 23.1942 8.62667 22.7667C8.51027 22.5871 8.3801 22.4168 8.23733 22.2573C8.08672 22.0897 7.92065 21.9365 7.74133 21.8C7.56459 21.6679 7.37084 21.5603 7.16533 21.48C6.96314 21.3913 6.74478 21.3455 6.524 21.3453C6.47067 21.3467 6.41733 21.352 6.364 21.3587C6.29116 21.3584 6.21859 21.3674 6.148 21.3853C6.08596 21.4016 6.02728 21.4287 5.97467 21.4653C5.95075 21.4785 5.93075 21.4978 5.91669 21.5212C5.90264 21.5446 5.89504 21.5714 5.89467 21.5987C5.90027 21.6628 5.91989 21.725 5.95214 21.7807C5.9844 21.8365 6.0285 21.8845 6.08133 21.9213C6.20533 22.02 6.308 22.096 6.39067 22.1493L6.43067 22.1773C6.608 22.3147 6.77867 22.4627 6.94 22.6213C7.08933 22.752 7.224 22.9 7.34 23.0613C7.46 23.22 7.564 23.3893 7.648 23.5693C7.74533 23.748 7.848 23.9533 7.956 24.1867C8.20667 24.8187 8.652 25.3533 9.228 25.7133C9.832 26.0373 10.5093 26.1987 11.196 26.1813C11.428 26.1813 11.6613 26.168 11.892 26.1413C12.1213 26.104 12.3493 26.0653 12.5787 26.02V28.344C12.5828 28.4377 12.5671 28.5312 12.5327 28.6185C12.4982 28.7057 12.4457 28.7847 12.3787 28.8502C12.3116 28.9158 12.2314 28.9665 12.1434 28.9989C12.0554 29.0314 11.9616 29.0449 11.868 29.0387H11.7853C8.67605 28.0342 6.02755 25.9527 4.31676 23.1688C2.60596 20.385 1.94529 17.0818 2.45371 13.8541C2.96213 10.6264 4.60623 7.68627 7.08996 5.56315C9.57369 3.44003 12.7338 2.27343 16.0013 2.27343C19.2688 2.27343 22.429 3.44003 24.9127 5.56315C27.3964 7.68627 29.0405 10.6264 29.549 13.8541C30.0574 17.0818 29.3967 20.385 27.6859 23.1688C25.9751 25.9527 23.3266 28.0342 20.2173 29.0387V29.044Z" fill="white"/>
</g>
<defs>
<clipPath id="clip0_84_4494">
<rect width="32" height="32" fill="white"/>
</clipPath>
</defs>
</svg>

<svg width="32" height="32" fill="none" xmlns="http://www.w3.org/2000/svg"><g clip-path="url(#a)"><path d="M16 0a16 16 0 1 0 0 32 16 16 0 0 0 0-32Zm4.217 29.044h-.124a.683.683 0 0 1-.509-.187.684.684 0 0 1-.187-.496v-1.874c.008-.623.014-1.254.014-1.888a4.924 4.924 0 0 0-.202-1.371 2.443 2.443 0 0 0-.722-1.167c.929-.09 1.843-.3 2.717-.628a5.402 5.402 0 0 0 1.955-1.285 5.111 5.111 0 0 0 1.18-2.008 9.03 9.03 0 0 0 .4-2.84 5.517 5.517 0 0 0-.347-1.968 5.19 5.19 0 0 0-1.06-1.712c.1-.25.172-.51.216-.776a4.95 4.95 0 0 0 .067-.805c0-.347-.04-.694-.12-1.031a7.08 7.08 0 0 0-.295-1.017.39.39 0 0 0-.148-.027h-.147a2.978 2.978 0 0 0-.898.148 7.13 7.13 0 0 0-.938.347 8.678 8.678 0 0 0-.881.457c-.287.17-.54.332-.764.483a12.77 12.77 0 0 0-6.857 0c-.25-.168-.505-.329-.763-.483a8.024 8.024 0 0 0-.896-.456 6.02 6.02 0 0 0-.94-.348 2.937 2.937 0 0 0-.883-.148H8.94a.39.39 0 0 0-.147.027 7.793 7.793 0 0 0-.307 1.017 5.048 5.048 0 0 0-.108 1.03c0 .27.023.54.068.806.044.265.115.525.214.776a5.183 5.183 0 0 0-1.056 1.713 5.523 5.523 0 0 0-.351 1.968c-.019.957.113 1.91.39 2.827.24.75.643 1.44 1.178 2.021.553.563 1.22 1 1.955 1.286.87.333 1.782.546 2.71.634a2.441 2.441 0 0 0-.602.844 3.986 3.986 0 0 0-.267.992 3.67 3.67 0 0 1-1.567.36c-.503.02-1-.12-1.42-.4a3.872 3.872 0 0 1-1.002-1.098 4.139 4.139 0 0 0-.39-.51 3.592 3.592 0 0 0-.496-.457 2.454 2.454 0 0 0-.576-.32 1.6 1.6 0 0 0-.641-.135 1.628 1.628 0 0 0-.16.014.864.864 0 0 0-.216.026.547.547 0 0 0-.173.08.155.155 0 0 0-.08.134.44.44 0 0 0 .186.322c.124.099.227.175.31.228l.04.028c.177.138.348.286.509.444.15.131.284.279.4.44.12.159.224.328.308.508.097.179.2.384.308.618.25.632.696 1.166 1.272 1.526a3.949 3.949 0 0 0 1.968.468c.232 0 .465-.013.696-.04.23-.037.457-.076.687-.121v2.324a.669.669 0 0 1-.711.695h-.083a13.715 13.715 0 1 1 8.432 0v.005Z" fill="#fff"/></g><defs><clipPath id="a"><path fill="#fff" d="M0 0h32v32H0z"/></clipPath></defs></svg>
